X:3448
T:La Vicoise
O:england
M:3/8
L:1/16
K:C
GAB|c2eede|c2eede|f4e2|d2gGAB|\
c2eede|c2eede|f2d2g2|1 c3:|2 c6||
|:ABc2A2|d2BdcB|ABc2d2|\
ABc2A2|d2BdcB|1 cdefg2:|2 c3||


